X:1
T:Title
L:1/8
M:4/4
I:linebreak $
K:G
V:1 treble nm="Voice"
V:1
"G" g2 fe dcBA | GBDG B2 AG |"D" FADF A>c BA |"G" GBDG B3 G |"G" g2 fe dcBA | GBDG B2 AG | %6
"D" FGAB cdef |"G" g2 g2 g4 ::[K:D]"D" A2 FA d2 Ad | ffdf a4 |"A" a2 g2 e2 c2 |"D" b2 a2 f2 d2 | %12
"D" A2 FA d2 Ad | ffdf a4 |"A" a2 g2 e2 c2 |"D" d4 d4 :| %16
